findly-builder/apps/searchassist/src/assets/icons/search-experience/top-down-help.svg

<svg width="218" height="55" viewBox="0 0 218 55" fill="none" xmlns="http://www.w3.org/2000/svg">
<g filter="url(#filter0_d_467_2320)">
<path d="M4 8C4 5.79086 5.79086 4 8 4H210C212.209 4 214 5.79086 214 8V47C214 49.2091 212.209 51 210 51H8C5.79086 51 4 49.2091 4 47V8Z" fill="#F3F8FF"/>
<path d="M4.5 8C4.5 6.067 6.067 4.5 8 4.5H210C211.933 4.5 213.5 6.067 213.5 8V47C213.5 48.933 211.933 50.5 210 50.5H8C6.067 50.5 4.5 48.933 4.5 47V8Z" stroke="#85B7FE"/>
</g>
<path d="M24.0824 34H25.3551L27.6023 25.8864H27.6818L29.929 34H31.2017L33.9858 23.8182H32.733L30.6051 32.1108H30.5057L28.3381 23.8182H26.946L24.7784 32.1108H24.679L22.5511 23.8182H21.2983L24.0824 34ZM36.8991 34.179C38.2315 34.179 38.9276 33.4631 39.1662 32.9659H39.2259V34H40.3991V28.9688C40.3991 26.5426 38.5497 26.2642 37.5753 26.2642C36.4219 26.2642 35.1094 26.6619 34.5128 28.054L35.6264 28.4517C35.8849 27.8949 36.4964 27.2983 37.6151 27.2983C38.6939 27.2983 39.2259 27.87 39.2259 28.8494V28.8892C39.2259 29.456 38.6491 29.4062 37.2571 29.5852C35.8402 29.7692 34.294 30.0824 34.294 31.8324C34.294 33.3239 35.4474 34.179 36.8991 34.179ZM37.0781 33.125C36.1435 33.125 35.4673 32.7074 35.4673 31.892C35.4673 30.9972 36.2827 30.7188 37.1974 30.5994C37.6946 30.5398 39.027 30.4006 39.2259 30.1619V31.2358C39.2259 32.1903 38.4702 33.125 37.0781 33.125ZM47.9498 28.0739C47.5819 26.9901 46.7566 26.2642 45.2452 26.2642C43.6344 26.2642 42.4412 27.179 42.4412 28.4716C42.4412 29.5256 43.0676 30.2315 44.4696 30.5597L45.7424 30.858C46.513 31.0369 46.8759 31.4048 46.8759 31.9318C46.8759 32.5881 46.1799 33.125 45.0861 33.125C44.1266 33.125 43.525 32.7124 43.3162 31.892L42.2026 32.1705C42.476 33.468 43.5449 34.1591 45.106 34.1591C46.8809 34.1591 48.089 33.1896 48.089 31.8722C48.089 30.8082 47.4228 30.1371 46.0605 29.804L44.927 29.5256C44.0222 29.3018 43.6145 28.9986 43.6145 28.4119C43.6145 27.7557 44.3105 27.2784 45.2452 27.2784C46.2694 27.2784 46.6919 27.8452 46.8958 28.3722L47.9498 28.0739ZM57.1136 26.3636H55.483V24.5341H54.3097V26.3636H53.1562V27.358H54.3097V32.1307C54.3097 33.4631 55.3835 34.0994 56.3778 34.0994C56.8153 34.0994 57.0938 34.0199 57.2528 33.9602L57.0142 32.9062C56.9148 32.9261 56.7557 32.9659 56.4972 32.9659C55.9801 32.9659 55.483 32.8068 55.483 31.8125V27.358H57.1136V26.3636ZM60.2159 29.4062C60.2159 28.0739 61.0661 27.3182 62.2244 27.3182C63.3281 27.3182 63.9943 28.0142 63.9943 29.2273V34H65.1676V29.1477C65.1676 27.1839 64.1236 26.2642 62.5625 26.2642C61.3594 26.2642 60.6733 26.7663 60.3153 27.5568H60.2159V23.8182H59.0426V34H60.2159V29.4062ZM67.3141 34H68.4874V26.3636H67.3141V34ZM67.9107 25.0909C68.3681 25.0909 68.7459 24.733 68.7459 24.2955C68.7459 23.858 68.3681 23.5 67.9107 23.5C67.4533 23.5 67.0755 23.858 67.0755 24.2955C67.0755 24.733 67.4533 25.0909 67.9107 25.0909ZM76.0455 28.0739C75.6776 26.9901 74.8523 26.2642 73.3409 26.2642C71.7301 26.2642 70.5369 27.179 70.5369 28.4716C70.5369 29.5256 71.1634 30.2315 72.5653 30.5597L73.8381 30.858C74.6087 31.0369 74.9716 31.4048 74.9716 31.9318C74.9716 32.5881 74.2756 33.125 73.1818 33.125C72.2223 33.125 71.6207 32.7124 71.4119 31.892L70.2983 32.1705C70.5717 33.468 71.6406 34.1591 73.2017 34.1591C74.9766 34.1591 76.1847 33.1896 76.1847 31.8722C76.1847 30.8082 75.5185 30.1371 74.1562 29.804L73.0227 29.5256C72.1179 29.3018 71.7102 28.9986 71.7102 28.4119C71.7102 27.7557 72.4062 27.2784 73.3409 27.2784C74.3651 27.2784 74.7876 27.8452 74.9915 28.3722L76.0455 28.0739ZM83.0616 29.4062C83.0616 28.0739 83.9118 27.3182 85.0701 27.3182C86.1738 27.3182 86.84 28.0142 86.84 29.2273V34H88.0133V29.1477C88.0133 27.1839 86.9693 26.2642 85.4082 26.2642C84.2051 26.2642 83.519 26.7663 83.161 27.5568H83.0616V23.8182H81.8883V34H83.0616V29.4062ZM93.3615 34.1591C94.9126 34.1591 96.0462 33.3835 96.4041 32.2301L95.2706 31.9119C94.9723 32.7074 94.2812 33.1051 93.3615 33.1051C91.9844 33.1051 91.0348 32.2152 90.9801 30.5795H96.5234V30.0824C96.5234 27.2386 94.8331 26.2642 93.2422 26.2642C91.174 26.2642 89.8018 27.8949 89.8018 30.2415C89.8018 32.5881 91.1541 34.1591 93.3615 34.1591ZM90.9801 29.5653C91.0597 28.3771 91.8999 27.3182 93.2422 27.3182C94.5149 27.3182 95.3303 28.2727 95.3303 29.5653H90.9801ZM99.4815 23.8182H98.3082V34H99.4815V23.8182ZM101.631 36.8636H102.804V32.8267H102.903C103.162 33.2443 103.659 34.1591 105.131 34.1591C107.04 34.1591 108.372 32.6278 108.372 30.2017C108.372 27.7955 107.04 26.2642 105.111 26.2642C103.619 26.2642 103.162 27.179 102.903 27.5767H102.764V26.3636H101.631V36.8636ZM102.784 30.1818C102.784 28.4716 103.54 27.3182 104.971 27.3182C106.463 27.3182 107.199 28.571 107.199 30.1818C107.199 31.8125 106.443 33.1051 104.971 33.1051C103.559 33.1051 102.784 31.9119 102.784 30.1818ZM113.562 26.3636H111.852V25.5881C111.852 24.8324 112.17 24.4347 112.946 24.4347C113.284 24.4347 113.483 24.5142 113.602 24.554L113.94 23.5398C113.761 23.4602 113.403 23.3409 112.827 23.3409C111.733 23.3409 110.679 23.9972 110.679 25.3097V26.3636H109.446V27.358H110.679V34H111.852V27.358H113.562V26.3636ZM120.019 30.8778C120.019 32.3097 118.925 32.9659 118.05 32.9659C117.076 32.9659 116.38 32.25 116.38 31.1364V26.3636H115.207V31.2159C115.207 33.1648 116.241 34.0994 117.673 34.0994C118.826 34.0994 119.582 33.483 119.94 32.7074H120.019V34H121.192V26.3636H120.019V30.8778ZM124.515 23.8182H123.341V34H124.515V23.8182ZM128.195 31.1364H129.388V31.0767C129.408 29.8438 129.726 29.3068 130.601 28.7599C131.476 28.228 131.993 27.4624 131.993 26.3636C131.993 24.8125 130.86 23.679 129.11 23.679C127.499 23.679 126.221 24.6733 126.147 26.3636H127.4C127.474 25.1903 128.294 24.7131 129.11 24.7131C130.044 24.7131 130.8 25.3295 130.8 26.304C130.8 27.0945 130.348 27.6612 129.766 28.0142C128.792 28.6058 128.21 29.1825 128.195 31.0767V31.1364ZM128.831 34.0795C129.324 34.0795 129.726 33.6768 129.726 33.1847C129.726 32.6925 129.324 32.2898 128.831 32.2898C128.339 32.2898 127.936 32.6925 127.936 33.1847C127.936 33.6768 128.339 34.0795 128.831 34.0795Z" fill="#202124"/>
<path d="M190.915 22C190.966 22 191.015 22.0065 191.062 22.0188L191.06 22H193.831V31.3333H191.331L189.17 34.8942C188.707 35.6081 188.129 36 187.415 36C187.251 36 187.085 35.9766 186.925 35.9302C186.052 35.6765 185.529 34.8003 185.702 33.9037L185.742 33.7355L186.162 32.5H181.556C180.646 32.5 179.899 31.8057 179.814 30.9185L179.806 30.75C179.806 30.3013 179.975 29.892 180.253 29.5822C179.974 29.2737 179.806 28.8648 179.806 28.4167C179.806 27.8855 180.043 27.4094 180.416 27.0884C180.215 26.8059 180.097 26.4583 180.097 26.0833C180.097 25.3707 180.524 24.7572 181.135 24.4843C181.03 24.2624 180.972 24.013 180.972 23.75C180.972 22.8407 181.667 22.0928 182.554 22.008L182.722 22H190.915ZM183.331 29V30.1667H181.556C181.234 30.1667 180.972 30.4282 180.972 30.75C180.972 31.0361 181.179 31.2745 181.451 31.3239L181.556 31.3333H186.977C187.344 31.3333 187.61 31.6634 187.553 32.0098L187.529 32.1045L186.855 34.0861C186.765 34.3958 186.943 34.7203 187.251 34.8098C187.304 34.8254 187.36 34.8333 187.415 34.8333C187.65 34.8333 187.864 34.7081 188.086 34.4117L188.182 34.274L190.331 30.7313V23.1667H182.722C182.436 23.1667 182.198 23.3733 182.148 23.6452L182.139 23.75C182.139 24.0361 182.346 24.2745 182.618 24.3239L182.722 24.3333H183.331V25.5H181.847C181.525 25.5 181.264 25.7615 181.264 26.0833C181.264 26.3694 181.471 26.6078 181.743 26.6573L181.847 26.6667H183.331V27.8333H181.556C181.234 27.8333 180.972 28.0948 180.972 28.4167C180.972 28.7027 181.179 28.9411 181.451 28.9906L181.556 29H183.331ZM191.498 30.1667H192.665V23.1667H191.498V30.1667Z" fill="#202124"/>
<path d="M159.806 29.5833C159.806 29.133 159.633 28.727 159.358 28.4167C159.633 28.1063 159.806 27.7003 159.806 27.25C159.806 26.2852 159.033 25.5 158.083 25.5H153.548L153.97 24.24C154.098 23.7908 154.048 23.3183 153.826 22.9088C153.604 22.4993 153.239 22.2007 152.798 22.07C151.989 21.8355 151.171 22.1913 150.579 23.12L148.46 26.6667H146V36H148.727V35.9708C148.773 35.9837 148.819 36 148.871 36H156.935C157.884 36 158.657 35.2148 158.657 34.25C158.657 33.9863 158.595 33.739 158.492 33.5138C159.095 33.2408 159.519 32.6295 159.519 31.9167C159.519 31.5398 159.398 31.1922 159.198 30.9063C159.567 30.5855 159.806 30.1142 159.806 29.5833ZM147.148 27.8333H148.297V34.8333H147.148V27.8333ZM156.935 34.8333H149.445V27.2675L151.551 23.7418C151.918 23.1667 152.207 23.1667 152.316 23.1667C152.37 23.1667 152.425 23.1748 152.478 23.1912C152.781 23.2798 152.957 23.6042 152.875 23.89L152.203 25.8967C152.143 26.0728 152.171 26.27 152.279 26.4228C152.387 26.5757 152.561 26.6667 152.747 26.6667H158.083C158.4 26.6667 158.657 26.9292 158.657 27.25C158.657 27.5708 158.4 27.8333 158.083 27.8333H156.361V29H158.083C158.4 29 158.657 29.2625 158.657 29.5833C158.657 29.9042 158.4 30.1667 158.083 30.1667H156.361V31.3333H157.796C158.113 31.3333 158.37 31.5958 158.37 31.9167C158.37 32.2375 158.113 32.5 157.796 32.5H156.361V33.6667H156.935C157.252 33.6667 157.509 33.9292 157.509 34.25C157.509 34.5708 157.252 34.8333 156.935 34.8333Z" fill="#202124"/>
<defs>
<filter id="filter0_d_467_2320" x="0" y="0" width="218" height="55" filterUnits="userSpaceOnUse" color-interpolation-filters="sRGB">
<feFlood flood-opacity="0" result="BackgroundImageFix"/>
<feColorMatrix in="SourceAlpha" type="matrix" values="0 0 0 0 0 0 0 0 0 0 0 0 0 0 0 0 0 0 127 0" result="hardAlpha"/>
<feOffset/>
<feGaussianBlur stdDeviation="2"/>
<feColorMatrix type="matrix" values="0 0 0 0 0.0509804 0 0 0 0 0.431373 0 0 0 0 0.992157 0 0 0 0.2 0"/>
<feBlend mode="normal" in2="BackgroundImageFix" result="effect1_dropShadow_467_2320"/>
<feBlend mode="normal" in="SourceGraphic" in2="effect1_dropShadow_467_2320" result="shape"/>
</filter>
</defs>
</svg>

<svg width="218" height="55" fill="none" xmlns="http://www.w3.org/2000/svg"><g filter="url(#a)"><path d="M4 8a4 4 0 0 1 4-4h202a4 4 0 0 1 4 4v39a4 4 0 0 1-4 4H8a4 4 0 0 1-4-4V8Z" fill="#F3F8FF"/><path d="M4.5 8A3.5 3.5 0 0 1 8 4.5h202a3.5 3.5 0 0 1 3.5 3.5v39a3.5 3.5 0 0 1-3.5 3.5H8A3.5 3.5 0 0 1 4.5 47V8Z" stroke="#85B7FE"/></g><path d="M24.082 34h1.273l2.247-8.114h.08L29.929 34h1.273l2.784-10.182h-1.253l-2.128 8.293h-.1l-2.167-8.293h-1.392l-2.168 8.293h-.099l-2.128-8.293h-1.253L24.082 34Zm12.817.179c1.332 0 2.029-.716 2.267-1.213h.06V34h1.173v-5.031c0-2.426-1.85-2.705-2.824-2.705-1.153 0-2.466.398-3.062 1.79l1.113.398c.259-.557.87-1.154 1.99-1.154 1.078 0 1.61.572 1.61 1.551v.04c0 .567-.577.517-1.969.696-1.417.184-2.963.497-2.963 2.247 0 1.492 1.153 2.347 2.605 2.347Zm.18-1.054c-.935 0-1.612-.418-1.612-1.233 0-.895.816-1.173 1.73-1.293.498-.06 1.83-.198 2.029-.437v1.074c0 .954-.756 1.889-2.148 1.889Zm10.87-5.051c-.367-1.084-1.192-1.81-2.704-1.81-1.61 0-2.804.915-2.804 2.208 0 1.054.627 1.76 2.029 2.088l1.272.298c.771.179 1.134.547 1.134 1.074 0 .656-.696 1.193-1.79 1.193-.96 0-1.561-.413-1.77-1.233l-1.113.278c.273 1.298 1.342 1.99 2.903 1.99 1.775 0 2.983-.97 2.983-2.288 0-1.064-.666-1.735-2.029-2.068l-1.133-.278c-.905-.224-1.313-.527-1.313-1.114 0-.656.697-1.134 1.631-1.134 1.024 0 1.447.567 1.65 1.094l1.055-.298Zm9.165-1.71h-1.631v-1.83H54.31v1.83h-1.154v.994h1.154v4.773c0 1.332 1.073 1.968 2.068 1.968.437 0 .716-.08.875-.139l-.239-1.054c-.1.02-.258.06-.517.06-.517 0-1.014-.16-1.014-1.154v-4.454h1.63v-.994Zm3.102 3.042c0-1.332.85-2.088 2.008-2.088 1.104 0 1.77.696 1.77 1.91V34h1.174v-4.852c0-1.964-1.044-2.884-2.606-2.884-1.203 0-1.889.502-2.247 1.293h-.1v-3.739h-1.172V34h1.173v-4.594ZM67.314 34h1.173v-7.636h-1.173V34Zm.597-8.91c.457 0 .835-.357.835-.794 0-.438-.378-.796-.835-.796-.458 0-.835.358-.835.796 0 .437.377.795.835.795Zm8.135 2.984c-.368-1.084-1.194-1.81-2.705-1.81-1.61 0-2.804.915-2.804 2.208 0 1.054.626 1.76 2.028 2.088l1.273.298c.77.179 1.134.547 1.134 1.074 0 .656-.696 1.193-1.79 1.193-.96 0-1.561-.413-1.77-1.233l-1.114.278c.274 1.298 1.343 1.99 2.904 1.99 1.775 0 2.983-.97 2.983-2.288 0-1.064-.666-1.735-2.029-2.068l-1.133-.278c-.905-.224-1.313-.527-1.313-1.114 0-.656.696-1.134 1.63-1.134 1.025 0 1.448.567 1.651 1.094l1.055-.298Zm7.016 1.332c0-1.332.85-2.088 2.008-2.088 1.104 0 1.77.696 1.77 1.91V34h1.173v-4.852c0-1.964-1.044-2.884-2.605-2.884-1.203 0-1.889.502-2.247 1.293h-.1v-3.739h-1.173V34h1.174v-4.594Zm10.3 4.753c1.55 0 2.684-.776 3.042-1.929l-1.133-.318c-.299.795-.99 1.193-1.91 1.193-1.377 0-2.326-.89-2.38-2.525h5.542v-.498c0-2.843-1.69-3.818-3.28-3.818-2.069 0-3.441 1.63-3.441 3.977s1.352 3.918 3.56 3.918Zm-2.382-4.594c.08-1.188.92-2.247 2.262-2.247 1.273 0 2.088.955 2.088 2.247h-4.35Zm8.501-5.747h-1.173V34h1.173V23.818Zm2.15 13.046h1.173v-4.037h.099c.259.417.756 1.332 2.228 1.332 1.909 0 3.241-1.531 3.241-3.957 0-2.407-1.332-3.938-3.261-3.938-1.492 0-1.949.915-2.208 1.313h-.139v-1.213h-1.133v10.5Zm1.153-6.682c0-1.71.756-2.864 2.187-2.864 1.492 0 2.228 1.253 2.228 2.864 0 1.63-.756 2.923-2.228 2.923-1.412 0-2.187-1.193-2.187-2.923Zm10.778-3.818h-1.71v-.776c0-.756.318-1.153 1.094-1.153.338 0 .537.08.656.119l.338-1.014c-.179-.08-.537-.2-1.113-.2-1.094 0-2.148.657-2.148 1.97v1.054h-1.233v.994h1.233V34h1.173v-6.642h1.71v-.994Zm6.457 4.514c0 1.432-1.094 2.088-1.969 2.088-.974 0-1.67-.716-1.67-1.83v-4.772h-1.173v4.852c0 1.949 1.034 2.883 2.466 2.883 1.153 0 1.909-.616 2.267-1.392h.079V34h1.173v-7.636h-1.173v4.514Zm4.496-7.06h-1.174V34h1.174V23.818Zm3.68 7.318h1.193v-.06c.02-1.232.338-1.77 1.213-2.316.875-.532 1.392-1.298 1.392-2.396 0-1.552-1.133-2.685-2.883-2.685-1.611 0-2.889.994-2.963 2.685h1.253c.074-1.174.894-1.65 1.71-1.65.934 0 1.69.616 1.69 1.59 0 .79-.452 1.357-1.034 1.71-.974.592-1.556 1.169-1.571 3.063v.06Zm.636 2.944a.897.897 0 0 0 .895-.895.897.897 0 0 0-.895-.895.898.898 0 0 0-.895.895c0 .492.403.895.895.895ZM190.915 22c.051 0 .1.006.147.019L191.06 22h2.771v9.333h-2.5l-2.161 3.561c-.463.714-1.041 1.106-1.755 1.106a1.751 1.751 0 0 1-1.713-2.096l.04-.168.42-1.236h-4.606a1.75 1.75 0 0 1-1.742-1.581l-.008-.169c0-.449.169-.858.447-1.168a1.749 1.749 0 0 1 .163-2.494 1.752 1.752 0 0 1 .719-2.604 1.751 1.751 0 0 1 1.419-2.476l.168-.008h8.193Zm-7.584 7v1.167h-1.775a.584.584 0 0 0-.105 1.157l.105.01h5.421c.367 0 .633.33.576.676l-.024.095-.674 1.981a.584.584 0 0 0 .56.747c.235 0 .449-.125.671-.421l.096-.138 2.149-3.543v-7.564h-7.609a.585.585 0 0 0-.574.478l-.009.105c0 .286.207.524.479.574l.104.01h.609V25.5h-1.484a.583.583 0 0 0-.104 1.157l.104.01h1.484v1.166h-1.775a.584.584 0 0 0-.105 1.158l.105.009h1.775Zm8.167 1.167h1.167v-7h-1.167v7Zm-31.692-.584c0-.45-.173-.856-.448-1.166.275-.31.448-.717.448-1.167 0-.965-.773-1.75-1.723-1.75h-4.535l.422-1.26c.128-.45.078-.922-.144-1.331a1.722 1.722 0 0 0-1.028-.839c-.809-.235-1.627.121-2.219 1.05l-2.119 3.547H146V36h2.727v-.03c.046.014.092.03.144.03h8.064c.949 0 1.722-.785 1.722-1.75a1.76 1.76 0 0 0-.165-.736 1.752 1.752 0 0 0 .706-2.608 1.75 1.75 0 0 0 .608-1.323Zm-12.658-1.75h1.149v7h-1.149v-7Zm9.787 7h-7.49v-7.566l2.106-3.525c.367-.575.656-.575.765-.575a.58.58 0 0 1 .559.723l-.672 2.007a.587.587 0 0 0 .076.526.573.573 0 0 0 .468.244h5.336a.58.58 0 0 1 .574.583.58.58 0 0 1-.574.583h-1.722V29h1.722a.58.58 0 0 1 .574.583.58.58 0 0 1-.574.584h-1.722v1.166h1.435a.58.58 0 0 1 .574.584.58.58 0 0 1-.574.583h-1.435v1.167h.574a.58.58 0 0 1 .574.583.58.58 0 0 1-.574.583Z" fill="#202124"/><defs><filter id="a" x="0" y="0" width="218" height="55" filterUnits="userSpaceOnUse" color-interpolation-filters="sRGB"><feFlood flood-opacity="0" result="BackgroundImageFix"/><feColorMatrix in="SourceAlpha" values="0 0 0 0 0 0 0 0 0 0 0 0 0 0 0 0 0 0 127 0" result="hardAlpha"/><feOffset/><feGaussianBlur stdDeviation="2"/><feColorMatrix values="0 0 0 0 0.0509804 0 0 0 0 0.431373 0 0 0 0 0.992157 0 0 0 0.2 0"/><feBlend in2="BackgroundImageFix" result="effect1_dropShadow_467_2320"/><feBlend in="SourceGraphic" in2="effect1_dropShadow_467_2320" result="shape"/></filter></defs></svg>
